packages/kaspersky-hexa-ui-icons/src/iconsSVGs/32/StatusWarning2Solid.svg

<svg width="32" height="32" viewBox="0 0 32 32" fill="none" xmlns="http://www.w3.org/2000/svg">
<path fill-rule="evenodd" clip-rule="evenodd" d="M23.9219 20.525L16.8643 8.39943C16.4786 7.73681 15.5214 7.73681 15.1357 8.39943L8.07811 20.525C7.69009 21.1917 8.17101 22.0281 8.94237 22.0281H23.0576C23.829 22.0281 24.3099 21.1917 23.9219 20.525ZM16 12C16.5523 12 17 12.4477 17 13V16C17 16.5523 16.5523 17 16 17C15.4478 17 15 16.5523 15 16V13C15 12.4477 15.4478 12 16 12ZM17 19C17 19.5523 16.5523 20 16 20C15.4478 20 15 19.5523 15 19C15 18.4477 15.4478 18 16 18C16.5523 18 17 18.4477 17 19Z" fill="black"/>
<path fill-rule="evenodd" clip-rule="evenodd" d="M30 16C30 23.732 23.732 30 16 30C8.26801 30 2 23.732 2 16C2 8.26801 8.26801 2 16 2C23.732 2 30 8.26801 30 16ZM13.4072 7.39335C14.5642 5.40551 17.4358 5.4055 18.5928 7.39335L25.6504 19.519C26.8145 21.5189 25.3717 24.0281 23.0576 24.0281H8.94237C6.62828 24.0281 5.18551 21.519 6.34958 19.519L13.4072 7.39335Z" fill="black"/>
</svg>

<svg xmlns="http://www.w3.org/2000/svg" width="32" height="32" fill="none" viewBox="0 0 32 32"><path fill="#000" fill-rule="evenodd" d="M16 30c7.732 0 14-6.268 14-14S23.732 2 16 2 2 8.268 2 16s6.268 14 14 14m2.5928-22.6067c-1.157-1.9878-4.0286-1.9878-5.1856 0L6.3496 19.519c-1.164 2 .2787 4.5091 2.5928 4.5091h14.1152c2.3141 0 3.7569-2.5092 2.5928-4.5091zm5.3291 13.1317L16.8643 8.3994c-.3857-.6626-1.3429-.6626-1.7286 0L8.0781 20.525c-.388.6667.093 1.5031.8643 1.5031h14.1152c.7714 0 1.2523-.8364.8643-1.5031M16 12c.5523 0 1 .4477 1 1v3c0 .5523-.4477 1-1 1s-1-.4477-1-1v-3c0-.5523.4478-1 1-1m1 7c0 .5523-.4477 1-1 1s-1-.4477-1-1 .4478-1 1-1 1 .4477 1 1"/></svg>
